resources/dark/visible.svg

<svg fill="none" height="16" viewBox="0 0 16 16" width="16" xmlns="http://www.w3.org/2000/svg" xmlns:xlink="http://www.w3.org/1999/xlink"><linearGradient id="a" gradientUnits="userSpaceOnUse" x1="8" x2="8" y1="3" y2="13.6666"><stop offset="0" stop-color="#4783f7"/><stop offset="1" stop-color="#b560f8"/></linearGradient><path d="m7.97278 11.1663.67873.9697c-.21657.0204-.43397.0306-.6515.0307-2.49604 0-4.68685-1.3323-5.86154-3.32569-.09066-.15383-.13847-.32913-.13847-.50769s.04781-.35387.13847-.5077c.50048-.84929 1.18569-1.57865 2.0005-2.13619l1.1891 1.69873c-.10439.29558-.16139.61365-.16139.94517 0 1.557 1.25281 2.81837 2.8061 2.83297zm5.88872-2.32529c-.6597 1.11952-1.6405 2.03039-2.8161 2.61409l.0002.0003.864 1.2333c.1583.2263.1033.5379-.1229.6963l-.2732.1912c-.2262.1584-.5379.1034-.6962-.1229l-6.72687-9.47539c-.15834-.22625-.10334-.53791.12291-.69625l.27313-.19125c.22625-.15833.53791-.10333.69625.12292l1.06329 1.51285c.55983-.14752 1.14785-.22618 1.754-.22618 2.49599 0 4.68689 1.33227 5.86149 3.32564.0907.15383.1385.32913.1385.50769 0 .17855-.0478.35385-.1385.50768zm-3.0282-.50768c0-1.56613-1.26742-2.83334-2.83329-2.83334-.37373 0-.73034.07236-1.05686.20359l.40207.56371c.53893-.17023 1.14675-.1284 1.675.15437h-.00063c-.49271 0-.89208.39938-.89208.89208 0 .49221.39889.89209.89208.89209.49271 0 .89208-.39938.89208-.89209v-.00062c.38463.71854.33983 1.62321-.17187 2.31146v.0002l.4024.56382c.4306-.49694.6911-1.1454.6911-1.85527zm-3.37467 2.09847-1.6152-2.30743c-.10446 1.09139.6107 2.04903 1.6152 2.30743z" fill="url(#a)"/></svg>

<svg width="16" height="16" viewBox="0 0 16 16" fill="none" xmlns="http://www.w3.org/2000/svg">
<path d="M7.97278 11.1663L8.65151 12.136C8.43494 12.1564 8.21754 12.1666 8.00001 12.1667C5.50397 12.1667 3.31316 10.8344 2.13847 8.84101C2.04781 8.68718 2 8.51188 2 8.33332C2 8.15476 2.04781 7.97945 2.13847 7.82562C2.63895 6.97633 3.32416 6.24697 4.13897 5.68943L5.32807 7.38816C5.22368 7.68374 5.16668 8.00181 5.16668 8.33333C5.16668 9.89033 6.41949 11.1517 7.97278 11.1663ZM13.8615 8.84101C13.2018 9.96053 12.221 10.8714 11.0454 11.4551L11.0456 11.4554L11.9096 12.6887C12.0679 12.915 12.0129 13.2266 11.7867 13.385L11.5135 13.5762C11.2873 13.7346 10.9756 13.6796 10.8173 13.4533L4.09043 3.97791C3.93209 3.75166 3.98709 3.44 4.21334 3.28166L4.48647 3.09041C4.71272 2.93208 5.02438 2.98708 5.18272 3.21333L6.24601 4.72618C6.80584 4.57866 7.39386 4.5 8.00001 4.5C10.496 4.5 12.6869 5.83227 13.8615 7.82564C13.9522 7.97947 14 8.15477 14 8.33333C14 8.51188 13.9522 8.68718 13.8615 8.84101ZM10.8333 8.33333C10.8333 6.7672 9.56588 5.49999 8.00001 5.49999C7.62628 5.49999 7.26967 5.57235 6.94315 5.70358L7.34522 6.26729C7.88415 6.09706 8.49197 6.13889 9.02022 6.42166H9.01959C8.52688 6.42166 8.12751 6.82104 8.12751 7.31374C8.12751 7.80595 8.5264 8.20583 9.01959 8.20583C9.5123 8.20583 9.91167 7.80645 9.91167 7.31374V7.31312C10.2963 8.03166 10.2515 8.93633 9.7398 9.62458V9.62478L10.1422 10.1886C10.5728 9.69166 10.8333 9.0432 10.8333 8.33333ZM7.45863 10.4318L5.84343 8.12437C5.73897 9.21576 6.45413 10.1734 7.45863 10.4318Z" fill="url(#paint0_linear)"/>
<defs>
<linearGradient id="paint0_linear" x1="8" y1="3" x2="8" y2="13.6666" gradientUnits="userSpaceOnUse">
<stop stop-color="#4783F7"/>
<stop offset="1" stop-color="#B560F8"/>
</linearGradient>
</defs>
</svg>
